packages/kaspersky-hexa-ui-icons/src/iconsSVGs/16x12/FlagIr.svg

<svg width="16" height="12" viewBox="0 0 16 12" fill="none" xmlns="http://www.w3.org/2000/svg">
<g clip-path="url(#clip0_41813_2790)">
<rect x="0.25" y="0.25" width="15.5" height="11.5" rx="1.75" fill="white" stroke="#F5F5F5" stroke-width="0.5"/>
<mask id="mask0_41813_2790" style="mask-type:luminance" maskUnits="userSpaceOnUse" x="0" y="0" width="16" height="12">
<rect x="0.25" y="0.25" width="15.5" height="11.5" rx="1.75" fill="white" stroke="white" stroke-width="0.5"/>
</mask>
<g mask="url(#mask0_41813_2790)">
<path fill-rule="evenodd" clip-rule="evenodd" d="M0 4H16V0H0V4Z" fill="#38BB56"/>
<path fill-rule="evenodd" clip-rule="evenodd" d="M0 12H16V8H0V12Z" fill="#DE1B27"/>
<path d="M1.32361 8.00034C1.43391 8.00034 1.52356 8.08931 1.5238 8.19955V8.59995C1.5238 8.7104 1.43407 8.80014 1.32361 8.80014H0.96228C0.851823 8.80014 0.762085 8.7104 0.762085 8.59995V8.19955C0.762331 8.08931 0.851975 8.00034 0.96228 8.00034H1.32361ZM2.84802 8.00034C2.95816 8.00053 3.047 8.08943 3.04724 8.19955V8.59995C3.04724 8.71028 2.95831 8.79994 2.84802 8.80014H2.48572C2.37528 8.80012 2.28552 8.71039 2.28552 8.59995V8.19955C2.28577 8.08932 2.37543 8.00036 2.48572 8.00034H2.84802ZM4.37146 8.00034C4.48177 8.00034 4.57141 8.08931 4.57166 8.19955V8.59995C4.57166 8.7104 4.48192 8.80014 4.37146 8.80014H4.00916C3.89889 8.79992 3.80994 8.71027 3.80994 8.59995V8.19955C3.81018 8.08944 3.89904 8.00056 4.00916 8.00034H4.37146ZM5.8949 8.00034C6.0052 8.00034 6.09485 8.08931 6.09509 8.19955V8.59995C6.09509 8.7104 6.00535 8.80014 5.8949 8.80014H5.53357C5.42311 8.80014 5.33337 8.7104 5.33337 8.59995V8.19955C5.33362 8.08931 5.42326 8.00034 5.53357 8.00034H5.8949ZM7.41931 8.00034C7.52951 8.00046 7.61926 8.08938 7.61951 8.19955V8.59995C7.61951 8.71033 7.52967 8.80002 7.41931 8.80014H7.05701C6.94663 8.80005 6.85681 8.71034 6.85681 8.59995V8.19955C6.85706 8.08937 6.94678 8.00043 7.05701 8.00034H7.41931ZM8.94275 8.00034C9.05305 8.00034 9.1427 8.08931 9.14294 8.19955V8.59995C9.14294 8.7104 9.05321 8.80014 8.94275 8.80014H8.58142C8.47096 8.80014 8.38123 8.7104 8.38123 8.59995V8.19955C8.38147 8.08931 8.47112 8.00034 8.58142 8.00034H8.94275ZM10.4672 8.00034C10.5773 8.00058 10.6661 8.08946 10.6664 8.19955V8.59995C10.6664 8.71025 10.5774 8.79989 10.4672 8.80014H10.1049C9.9944 8.80014 9.90466 8.7104 9.90466 8.59995V8.19955C9.90491 8.08931 9.99455 8.00034 10.1049 8.00034H10.4672ZM11.9906 8.00034C12.1009 8.00038 12.1906 8.08933 12.1908 8.19955V8.59995C12.1908 8.71037 12.101 8.8001 11.9906 8.80014H11.6283C11.518 8.79997 11.4291 8.7103 11.4291 8.59995V8.19955C11.4293 8.08941 11.5181 8.00051 11.6283 8.00034H11.9906ZM13.514 8.00034C13.6243 8.00034 13.714 8.08931 13.7142 8.19955V8.59995C13.7142 8.7104 13.6245 8.80014 13.514 8.80014H13.1527C13.0423 8.80014 12.9525 8.7104 12.9525 8.59995V8.19955C12.9528 8.08931 13.0424 8.00034 13.1527 8.00034H13.514ZM15.0385 8.00034C15.1486 8.00051 15.2374 8.08941 15.2377 8.19955V8.59995C15.2377 8.7103 15.1488 8.79997 15.0385 8.80014H14.6761C14.5657 8.8001 14.476 8.71037 14.476 8.59995V8.19955C14.4762 8.08933 14.5659 8.00038 14.6761 8.00034H15.0385ZM1.32361 3.19955C1.43398 3.19955 1.52366 3.28941 1.5238 3.39975V3.80014C1.52373 3.91054 1.43402 4.00034 1.32361 4.00034H0.96228C0.851867 4.00034 0.762155 3.91054 0.762085 3.80014V3.39975C0.762226 3.28941 0.85191 3.19955 0.96228 3.19955H1.32361ZM2.84802 3.19955C2.95823 3.19975 3.0471 3.28953 3.04724 3.39975V3.80014C3.04717 3.91042 2.95827 4.00014 2.84802 4.00034H2.48572C2.37532 4.00032 2.28559 3.91053 2.28552 3.80014V3.39975C2.28566 3.28942 2.37536 3.19957 2.48572 3.19955H2.84802ZM4.37146 3.19955C4.48183 3.19955 4.57151 3.28941 4.57166 3.39975V3.80014C4.57158 3.91054 4.48187 4.00034 4.37146 4.00034H4.00916C3.89893 4.00012 3.81001 3.9104 3.80994 3.80014V3.39975C3.81008 3.28955 3.89897 3.19977 4.00916 3.19955H4.37146ZM5.8949 3.19955C6.00527 3.19955 6.09495 3.28941 6.09509 3.39975V3.80014C6.09502 3.91054 6.00531 4.00034 5.8949 4.00034H5.53357C5.42316 4.00034 5.33344 3.91054 5.33337 3.80014V3.39975C5.33351 3.28941 5.4232 3.19955 5.53357 3.19955H5.8949ZM7.41931 3.19955C7.52958 3.19967 7.61937 3.28949 7.61951 3.39975V3.80014C7.61944 3.91046 7.52962 4.00022 7.41931 4.00034H7.05701C6.94667 4.00024 6.85688 3.91048 6.85681 3.80014V3.39975C6.85695 3.28947 6.94672 3.19965 7.05701 3.19955H7.41931ZM8.94275 3.19955C9.05312 3.19955 9.1428 3.28941 9.14294 3.39975V3.80014C9.14287 3.91054 9.05316 4.00034 8.94275 4.00034H8.58142C8.47101 4.00034 8.3813 3.91054 8.38123 3.80014V3.39975C8.38137 3.28941 8.47105 3.19955 8.58142 3.19955H8.94275ZM10.4672 3.19955C10.5773 3.1998 10.6662 3.28956 10.6664 3.39975V3.80014C10.6663 3.91039 10.5774 4.00009 10.4672 4.00034H10.1049C9.99444 4.00034 9.90473 3.91054 9.90466 3.80014V3.39975C9.9048 3.28941 9.99449 3.19955 10.1049 3.19955H10.4672ZM11.9906 3.19955C12.1009 3.1996 12.1907 3.28944 12.1908 3.39975V3.80014C12.1907 3.91051 12.101 4.00029 11.9906 4.00034H11.6283C11.518 4.00017 11.4291 3.91043 11.4291 3.80014V3.39975C11.4292 3.28952 11.5181 3.19972 11.6283 3.19955H11.9906ZM13.514 3.19955C13.6244 3.19955 13.7141 3.28941 13.7142 3.39975V3.80014C13.7142 3.91054 13.6245 4.00034 13.514 4.00034H13.1527C13.0423 4.00034 12.9526 3.91054 12.9525 3.80014V3.39975C12.9527 3.28941 13.0423 3.19955 13.1527 3.19955H13.514ZM15.0385 3.19955C15.1487 3.19972 15.2375 3.28952 15.2377 3.39975V3.80014C15.2376 3.91043 15.1487 4.00017 15.0385 4.00034H14.6761C14.5658 4.00029 14.476 3.91051 14.476 3.80014V3.39975C14.4761 3.28944 14.5658 3.1996 14.6761 3.19955H15.0385Z" fill="white" fill-opacity="0.5"/>
<mask id="path-6-inside-1_41813_2790" fill="white">
<path fill-rule="evenodd" clip-rule="evenodd" d="M7.23061 5.11267C7.00117 5.33215 6.85718 5.64841 6.85718 5.99999C6.85718 6.66273 7.36885 7.19999 8.00003 7.19999C8.63122 7.19999 9.14289 6.66273 9.14289 5.99999C9.14289 5.65505 9.00428 5.3441 8.78236 5.1252"/>
</mask>
<path d="M7.23061 5.11267L6.88499 4.75136C6.55811 5.06404 6.35718 5.51034 6.35718 5.99999H6.85718H7.35718C7.35718 5.78648 7.44423 5.60025 7.57623 5.47398L7.23061 5.11267ZM6.85718 5.99999H6.35718C6.35718 6.9156 7.07 7.69999 8.00003 7.69999V7.19999V6.69999C7.6677 6.69999 7.35718 6.40985 7.35718 5.99999H6.85718ZM8.00003 7.19999V7.69999C8.93007 7.69999 9.64289 6.9156 9.64289 5.99999H9.14289H8.64289C8.64289 6.40985 8.33237 6.69999 8.00003 6.69999V7.19999ZM9.14289 5.99999H9.64289C9.64289 5.51958 9.44947 5.08091 9.13347 4.76923L8.78236 5.1252L8.43124 5.48117C8.5591 5.60729 8.64289 5.79051 8.64289 5.99999H9.14289Z" fill="#D80915" mask="url(#path-6-inside-1_41813_2790)"/>
<rect x="7.61902" y="5.60001" width="0.761905" height="1.6" rx="0.380952" fill="#D80915"/>
</g>
</g>
<defs>
<clipPath id="clip0_41813_2790">
<rect width="16" height="12" fill="white"/>
</clipPath>
</defs>
</svg>

<svg xmlns="http://www.w3.org/2000/svg" width="16" height="12" fill="none" viewBox="0 0 16 12"><g clip-path="url(#a)"><rect width="16" height="12" fill="#fff" stroke="#f5f5f5" rx="2"/><mask id="b" width="16" height="12" x="0" y="0" maskUnits="userSpaceOnUse" style="mask-type:luminance"><rect width="16" height="12" fill="#fff" stroke="#fff" rx="2"/></mask><g mask="url(#b)"><path fill="#38bb56" fill-rule="evenodd" d="M0 4h16V0H0z" clip-rule="evenodd"/><path fill="#de1b27" fill-rule="evenodd" d="M0 12h16V8H0z" clip-rule="evenodd"/><path fill="#fff" d="M1.3236 8.0003c.1103 0 .2.089.2002.1993v.4003a.2003.2003 0 0 1-.2002.2002H.9623A.2003.2003 0 0 1 .762 8.6v-.4003a.2.2 0 0 1 .2002-.1993zm1.5244 0a.1994.1994 0 0 1 .1992.1993v.4003c0 .1104-.0889.2-.1992.2002h-.3623A.2004.2004 0 0 1 2.2855 8.6v-.4003a.2.2 0 0 1 .2002-.1993zm1.5235 0c.1103 0 .2.089.2002.1993v.4003a.2003.2003 0 0 1-.2002.2002h-.3623A.2.2 0 0 1 3.8099 8.6v-.4003a.1994.1994 0 0 1 .1993-.1993zm1.5234 0c.1103 0 .2.089.2002.1993v.4003a.2003.2003 0 0 1-.2002.2002h-.3613A.2003.2003 0 0 1 5.3334 8.6v-.4003a.2.2 0 0 1 .2002-.1993zm1.5244 0a.2.2 0 0 1 .2002.1993v.4003a.2005.2005 0 0 1-.2002.2002H7.057A.2005.2005 0 0 1 6.8568 8.6v-.4003a.2.2 0 0 1 .2002-.1993zm1.5235 0c.1103 0 .1999.089.2001.1993v.4003a.2003.2003 0 0 1-.2001.2002h-.3614A.2003.2003 0 0 1 8.3812 8.6v-.4003a.2.2 0 0 1 .2002-.1993zm1.5244 0a.1995.1995 0 0 1 .1992.1993v.4003a.2.2 0 0 1-.1992.2002h-.3623A.2003.2003 0 0 1 9.9047 8.6v-.4003a.2.2 0 0 1 .2002-.1993zm1.5234 0c.1103 0 .2.089.2002.1993v.4003a.2004.2004 0 0 1-.2002.2002h-.3623a.2.2 0 0 1-.1992-.2002v-.4003a.199.199 0 0 1 .1992-.1993zm1.5234 0c.1103 0 .2.089.2002.1993v.4003a.2003.2003 0 0 1-.2002.2002h-.3613a.2004.2004 0 0 1-.2002-.2002v-.4003a.2.2 0 0 1 .2002-.1993zm1.5245 0a.1994.1994 0 0 1 .1992.1993v.4003c0 .1104-.0889.2-.1992.2002h-.3624A.2003.2003 0 0 1 14.476 8.6v-.4003a.2.2 0 0 1 .2001-.1993zM1.3236 3.1996c.1104 0 .2.0898.2002.2001v.4004a.2004.2004 0 0 1-.2002.2002H.9623a.2004.2004 0 0 1-.2002-.2002v-.4003a.2006.2006 0 0 1 .2002-.2003zm1.5244 0a.2.2 0 0 1 .1992.2001v.4004a.2.2 0 0 1-.1992.2002h-.3623a.2005.2005 0 0 1-.2002-.2002v-.4003a.2006.2006 0 0 1 .2002-.2003zm1.5235 0c.1103 0 .2.0898.2002.2001v.4004a.2005.2005 0 0 1-.2002.2002h-.3623a.2.2 0 0 1-.1993-.2002v-.4003a.2.2 0 0 1 .1993-.2003zm1.5234 0c.1104 0 .2.0898.2002.2001v.4004a.2004.2004 0 0 1-.2002.2002h-.3613a.2005.2005 0 0 1-.2002-.2002v-.4003a.2006.2006 0 0 1 .2002-.2003zm1.5244 0c.1103 0 .2.0899.2002.2001v.4004a.2005.2005 0 0 1-.2002.2002H7.057a.2006.2006 0 0 1-.2002-.2002v-.4003a.2007.2007 0 0 1 .2002-.2003zm1.5235 0c.1103 0 .2.0898.2001.2001v.4004a.2004.2004 0 0 1-.2001.2002h-.3614a.2004.2004 0 0 1-.2002-.2002v-.4003a.2006.2006 0 0 1 .2002-.2003zm1.5244 0c.1101.0002.199.09.1992.2001v.4004a.2.2 0 0 1-.1992.2002h-.3623a.2005.2005 0 0 1-.2002-.2002v-.4003a.2006.2006 0 0 1 .2002-.2003zm1.5234 0a.2006.2006 0 0 1 .2002.2001v.4004a.2005.2005 0 0 1-.2002.2002h-.3623a.2.2 0 0 1-.1992-.2002v-.4003a.2.2 0 0 1 .1992-.2003zm1.5234 0a.2005.2005 0 0 1 .2002.2001v.4004a.2004.2004 0 0 1-.2002.2002h-.3613a.2005.2005 0 0 1-.2002-.2002v-.4003a.2006.2006 0 0 1 .2002-.2003zm1.5245 0a.2.2 0 0 1 .1992.2001v.4004a.2.2 0 0 1-.1992.2002h-.3624a.2004.2004 0 0 1-.2001-.2002v-.4003a.2005.2005 0 0 1 .2001-.2003z"/><mask id="c" fill="#fff"><path fill-rule="evenodd" d="M7.2306 5.1127c-.2294.2195-.3734.5357-.3734.8873 0 .6627.5117 1.2 1.1428 1.2S9.143 6.6627 9.143 6c0-.345-.1386-.6559-.3605-.8748" clip-rule="evenodd"/></mask><path fill="#d80915" d="m7.2306 5.1127-.3456-.3613c-.3269.3126-.5278.759-.5278 1.2486h1c0-.2135.087-.3998.219-.526zM6.8572 6h-.5c0 .9156.7128 1.7 1.6428 1.7v-1c-.3323 0-.6428-.2902-.6428-.7zM8 7.2v.5c.93 0 1.6429-.7844 1.6429-1.7h-1c0 .4098-.3105.7-.6429.7zM9.143 6h.5c0-.4804-.1934-.919-.5094-1.2308l-.3511.356-.3512.356c.1279.126.2117.3093.2117.5188z" mask="url(#c)"/><rect width="1" height="2" x="8" y="6" fill="#d80915" rx="0"/></g></g><defs><clipPath id="a"><path fill="#fff" d="M0 0h16v12H0z"/></clipPath></defs></svg>
